icons/gift.svg

<?xml version="1.0" encoding="UTF-8"?>
<svg width="50" height="50" version="1.1" viewBox="0 0 50 50" xmlns="http://www.w3.org/2000/svg">
<path d="m20.09 6.9512c-0.40283-0.036621-0.87109 0.080078-1.3398 0.54883l-2.5 2.5s-1.25 1.25 0 2.5h-8.75c-2.5 0-2.5 2.5-2.5 2.5v3.75c0 1.25 1.25 1.25 1.25 1.25h37.5c1.25 0 1.25-1.25 1.25-1.25v-3.75c0-2.5-2.5-2.5-2.5-2.5h-8.75s1.25-1.25 0-2.5l-2.5-2.5s-1.25-1.25-2.5 0l-3.75 3.75-3.75-3.75s-0.48877-0.48779-1.1602-0.54883zm-12.59 15.549v17.5s0 2.5 2.5 2.5h12.5v-20h-15zm20 0v20h12.5s2.5 0 2.5-2.5v-17.5h-15z"/>
</svg>

<?xml version="1.0" encoding="UTF-8" standalone="no"?>
<svg
   xmlns:dc="http://purl.org/dc/elements/1.1/"
   xmlns:cc="http://creativecommons.org/ns#"
   xmlns:rdf="http://www.w3.org/1999/02/22-rdf-syntax-ns#"
   xmlns:svg="http://www.w3.org/2000/svg"
   xmlns="http://www.w3.org/2000/svg"
   id="svg4"
   viewBox="0 0 50 50"
   version="1.1"
   width="50"
   height="50">
  <metadata
     id="metadata10">
    <rdf:RDF>
      <cc:Work
         rdf:about="">
        <dc:format>image/svg+xml</dc:format>
        <dc:type
           rdf:resource="http://purl.org/dc/dcmitype/StillImage" />
        <dc:title></dc:title>
      </cc:Work>
    </rdf:RDF>
  </metadata>
  <defs
     id="defs8" />
  <path
     id="path915"
     d="M 20.089844 6.9511719 C 19.687012 6.9145508 19.21875 7.03125 18.75 7.5 L 16.25 10 C 16.25 10 15 11.25 16.25 12.5 L 7.5 12.5 C 5 12.5 5 15 5 15 L 5 18.75 C 5 20 6.25 20 6.25 20 L 43.75 20 C 45 20 45 18.75 45 18.75 L 45 15 C 45 12.5 42.5 12.5 42.5 12.5 L 33.75 12.5 C 33.75 12.5 35 11.25 33.75 10 L 31.25 7.5 C 31.25 7.5 30 6.25 28.75 7.5 L 25 11.25 L 21.25 7.5 C 21.25 7.5 20.76123 7.012207 20.089844 6.9511719 z M 7.5 22.5 L 7.5 40 C 7.5 40 7.5 42.5 10 42.5 L 22.5 42.5 L 22.5 22.5 L 7.5 22.5 z M 27.5 22.5 L 27.5 42.5 L 40 42.5 C 40 42.5 42.5 42.5 42.5 40 L 42.5 22.5 L 27.5 22.5 z " />
</svg>
